X: 2020
T: Yörü Bire Çiçek Dağı
C: Âşık Ali İzzet Özkan
O: Turkey
F: http://compmusic.upf.edu/node/140
N: tahir--turku--devrihindi--yoru_bire--sarkisla
N: makam= tahir
N: form= turku
N: usul= devrihindi = 7/4
M: 7/4
L: 1/16
K: C _2/4B ^3/4f  
Q: 1/4=108
%%MIDI tuningsystem comma53
Bc d4 c/d/B/c/ A2 c/d/B/c/ A2  | Bc d4 (3dBc A2 c/d/B/c/ A2  | 
w:  ARANAĞME  |   | 
Bc d4 c/d/B/c/ A2 cB cB  | BA A4 A4 A4  | \
w:   |   | 
Bc d4 c/d/B/c/ A2 cB cB  | 
w:   | 
BA A4 A4 A4  | G2 cA3 cB cB c/d/B3  | \
w:   |   | 
BA A4 A4 A4  | A2 A2 A2 A4 A4  | 
w:   |   | 
A2 A2 A2 A4 A4  | bc' c'4 bc'2b c'b a2  | \
w:   |  Yö *  rü  bi *  *  re   | 
bc' c'3b b3a a4  | 
w:  Çi *  çek *  da *  ğı    | 
a2 a2 a2 a4 a4  | fg a4 ba3 a4  | bc' c'b2a a4 g2 z2  | \
w:  SAZ  |  Sen  *  de  su *  na   |  boy *  lum  *  *  gel di    | 
c'b c'b2a a4 g4  | 
w:  SAZ  | 
bc' d'b c'2 c'b3 b3a  | a2 a2 a2 a4 a4  | \
w:  Hep  *  guş *  *  la *  rın   |  dö nüm  *  ça ğı    | 
a2 a2 a2 a4 a4  | fg a4 gf3 _2/4ed c2  | 
w:  SAZ  |  Bül *  bü lün  *  gon  | 
Bc d4 cB2A A4  | A2 A2 A2 A4 A4  | Bc d4 c/d/B/c/ A2 c/d/B/c/ A2  | 
w:  ca *  sı  sol *  *  du    |  SAZ  |  Ba *  ka rım  *  *  *  *  ki   | 
Bc d4 (3dBc A2 c/d/B/c/ A2  | Bc d4 c/d/B/c/ A2 cB cB  | 
w:  var  *  ge le *  *  *  cek    |  Yâ *  re me  *  *  *  *  mel  | 
BA A4 A4 A4  | Bc d4 c/d/B/c/ A2 c/d/B/c/ A2  | \
w:  hem_ *  o la cak    |  Ba *  ka rım  *  *  *  *  ki   | 
Bc d4 (3dBc A2 c/d/B/c/ A2  | 
w:  var  *  ge le *  *  *  cek    | 
Bc d4 c/d/B/c/ A2 cB cB  | BA A4 A4 A4  | \
w:  Yâ *  re me  *  *  *  *  mel  |  hem_ *  o la cak    | 
Bc d4 c/d/B/c/ A2 cB cB  | 
w:  Mı *  sı ra  *  *  *  *  sul  | 
BA A4 A4 A4  | G2 cA3 cB cB c/d/B3  | \
w:  tan_ *  o la cak    |  Yu suf_ *  u  *  *  *  Ke  | 
BA A4 A4 A4  | A2 A2 A2 A4 A4  | 
w:  na *  nım  gel di    |  SAZ  | 
A2 A2 A2 A4 A4  | Bc d4 c/d/B/c/ A2 cB cB  | \
w:   |  Mı *  sı ra  *  *  *  *  sul  | 
BA A4 A4 A4  | 
w:  tan_ *  o la cak    | 
G2 cA3 cB cB c/d/B3  | BA A4 A4 A4  | \
w:  Yu suf_ *  u  *  *  *  Ke  |  na *  nım  gel di    | 
A2 A2 A2 A4 A4  | A2 A2 A2 A4 A4  | 
w:  SAZ  |   | 
Bc d4 c/d/B/c/ A2 c/d/B/c/ A2  | Bc d4 (3dBc A2 c/d/B/c/ A2  | 
w:  ARANAĞME  |   | 
Bc d4 c/d/B/c/ A2 cB cB  | BA A4 A4 A4  | \
w:   |   | 
Bc d4 c/d/B/c/ A2 cB cB  | 
w:   | 
BA A4 A4 A4  | G2 cA3 cB cB c/d/B3  | \
w:   |   | 
BA A4 A4 A4  | A2 A2 A2 A4 A4  | 
w:   |   | 
A2 A2 A2 A4 A4  | bc' c'4 bc'2b c'b a2  | \
w:   |  Yö *  rü  bi *  *  re   | 
bc' c'3b b3a a4  | 
w:  Çi *  çek *  da *  ğı    | 
a2 a2 a2 a4 a4  | fg a4 ba3 a4  | bc' c'b2a a4 g2 z2  | \
w:  SAZ  |  Sen  *  de  su *  na   |  boy *  lum  *  *  gel di    | 
c'b c'b2a a4 g4  | 
w:  SAZ  | 
bc' d'b c'2 c'b3 b3a  | a2 a2 a2 a4 a4  | \
w:  Hep  *  guş *  *  la *  rın   |  dö nüm  *  ça ğı    | 
a2 a2 a2 a4 a4  | fg a4 gf3 _2/4ed c2  | 
w:  SAZ  |  Bül *  bü lün  *  gon  | 
Bc d4 cB2A A4  | A2 A2 A2 A4 A4  | Bc d4 c/d/B/c/ A2 c/d/B/c/ A2  | 
w:  ca *  sı  sol *  *  du    |  SAZ  |  Ba *  ka rım  *  *  *  *  ki   | 
Bc d4 (3dBc A2 c/d/B/c/ A2  | Bc d4 c/d/B/c/ A2 cB cB  | 
w:  var  *  ge le *  *  *  cek    |  Yâ *  re me  *  *  *  *  mel  | 
BA A4 A4 A4  | Bc d4 c/d/B/c/ A2 c/d/B/c/ A2  | \
w:  hem_ *  o la cak    |  Ba *  ka rım  *  *  *  *  ki   | 
Bc d4 (3dBc A2 c/d/B/c/ A2  | 
w:  var  *  ge le *  *  *  cek    | 
Bc d4 c/d/B/c/ A2 cB cB  | BA A4 A4 A4  | \
w:  Yâ *  re me  *  *  *  *  mel  |  hem_ *  o la cak    | 
Bc d4 c/d/B/c/ A2 cB cB  | 
w:  Mı *  sı ra  *  *  *  *  sul  | 
BA A4 A4 A4  | G2 cA3 cB cB c/d/B3  | \
w:  tan_ *  o la cak    |  Yu suf_ *  u  *  *  *  Ke  | 
BA A4 A4 A4  | A2 A2 A2 A4 A4  | 
w:  na *  nım  gel di    |  SAZ  | 
A2 A2 A2 A4 A4  | Bc d4 c/d/B/c/ A2 cB cB  | \
w:   |  Mı *  sı ra  *  *  *  *  sul  | 
BA A4 A4 A4  | 
w:  tan_ *  o la cak    | 
G2 cA3 cB cB c/d/B3  | BA A4 A4 A4  | \
w:  Yu suf_ *  u  *  *  *  Ke  |  na *  nım  gel di    | 
A2 A2 A2 A4 A4  | A2 A2 A2 A4 A4  | 
w:  SAZ  |   | 
|


